X:0528
M:C
L:1/8
Q:1/4=120
K:G
e|d<BB>G A>GA>e|d<BB>G       B2 B>e|d<BB>G A>GAB |G<EE>D G2Ge|
  d<BB>G A>GAe |d<BB>G       B2 B>c|d>gB>g A>GA>B|G<EE>D G2G:|

